packages/core/src/svgs/tokens/branded/LYM.svg

<svg width="24" height="24" viewBox="0 0 24 24" fill="none" xmlns="http://www.w3.org/2000/svg">
<path d="M9.01642 18.3564L2.06881 6.18673C2.08215 6.18673 1.56217 4.78122 3.18879 4.78122H7.66978C7.93911 4.76239 8.20843 4.81798 8.44829 4.94193C8.68814 5.06588 8.88929 5.2534 9.02974 5.48398C9.52306 6.29506 16.444 18.4781 16.444 18.4781L10.4963 19.2208C9.86972 19.248 9.30974 18.9102 9.01642 18.3564Z" fill="#FDC5CA"/>
<path d="M10.3581 16.5849L14.6651 9.35733C14.6651 9.35733 15.008 8.66516 16.0918 8.66516H20.6595C20.6595 8.66516 22.5528 8.70516 21.8394 9.92963C21.1261 11.1673 16.7913 18.4616 16.7913 18.4616C16.7913 18.4616 16.5035 19.2205 15.3374 19.2205H9.7681C9.7681 19.2205 8.73924 19.1804 9.50699 17.9427C10.2754 16.7049 10.3581 16.5849 10.3581 16.5849Z" fill="white"/>
</svg>

<svg xmlns="http://www.w3.org/2000/svg" width="24" height="24" fill="none" viewBox="0 0 24 24">
    <path fill="#FDC5CA" d="M9.016 18.356 2.07 6.186c.013 0-.507-1.405 1.12-1.405h4.48a1.47 1.47 0 0 1 1.36.703c.494.811 7.415 12.994 7.415 12.994l-5.948.743a1.59 1.59 0 0 1-1.48-.865"/>
    <path fill="#fff" d="m10.358 16.585 4.307-7.228s.343-.692 1.427-.692h4.568s1.893.04 1.18 1.265c-.714 1.237-5.049 8.532-5.049 8.532s-.288.759-1.454.759H9.768s-1.029-.04-.261-1.278.851-1.358.851-1.358"/>
</svg>
